src/assets/svg/signature.svg

<?xml version="1.0" encoding="utf-8"?>
<!-- Generator: Adobe Illustrator 27.0.0, SVG Export Plug-In . SVG Version: 6.00 Build 0)  -->
<svg version="1.1" id="Layer_1" xmlns="http://www.w3.org/2000/svg" xmlns:xlink="http://www.w3.org/1999/xlink" x="0px" y="0px"
	 viewBox="0 0 841.89 595.28" style="enable-background:new 0 0 841.89 595.28;" xml:space="preserve">
<style type="text/css">
	.st0{fill:none;stroke:#000000;stroke-width:5;stroke-linecap:round;stroke-linejoin:round;stroke-miterlimit:10;}
</style>
<line class="st0" x1="705.09" y1="259.64" x2="705.09" y2="235.74"/>
<line class="st0" x1="689.47" y1="235.74" x2="717.14" y2="235.74"/>
<line class="st0" x1="682.12" y1="235.74" x2="682.12" y2="260.58"/>
<line class="st0" x1="664.43" y1="260.58" x2="665.56" y2="235.74"/>
<line class="st0" x1="645.42" y1="235.74" x2="674.78" y2="235.74"/>
<g>
	<g>
		<path d="M544.34,274.38c3.22,0,3.22-5,0-5C541.12,269.38,541.11,274.38,544.34,274.38L544.34,274.38z"/>
	</g>
</g>
<g>
	<g>
		<path d="M460.76,281.53c3.22,0,3.22-5,0-5C457.54,276.53,457.54,281.53,460.76,281.53L460.76,281.53z"/>
	</g>
</g>
<path class="st0" d="M258.97,237.24c0,0,151.72-7.53,147.95,0c-3.76,7.53-66.26,21.08-66.26,21.08s84.71,6.4,84.33,37.27
	c-0.38,30.87-51.2,62.12-92.24,48.56s127.25-62.48,123.48-57.03c-3.76,5.45-15.31,17.12,0.06,8.84
	c15.37-8.28,63.18-47.44,63.18-47.44s-45.55,43.58-34.64,42.12c10.92-1.46,64.38-39.86,64.38-39.86s-39.53,38.04-29.74,36.34
	c9.79-1.7,20.71-8.1,20.71-8.1s-9.22,13.55,0.19,9.79c9.41-3.76,23.53-9.98,23.53-9.98s-6.4,10.16,0.94,6.78
	c7.34-3.39,17.13-7.72,17.13-7.72s-5.46,11.67,4.52,10.16c9.98-1.51,24.47-10.73,20.89-11.86c-3.58-1.13-15.62,12.8-4.52,11.86
	c11.11-0.94,18.45-10.16,18.45-10.16s-52.52,72.09-61.36,65.32c-8.85-6.78,52.71-50.62,64-56.09c11.29-5.47,26.92-14.31,21.46-13.94
	s-4.71,4.14-0.56,6.59s2.82,11.95-7.34,10.87c-10.16-1.08,71.34-10.12,141.36-9.18"/>
<line class="st0" x1="380.2" y1="204.49" x2="282.31" y2="359.6"/>
<path class="st0" d="M207.02,220.68c0,0-88.09,134.4-81.69,132.89c6.4-1.51,94.49-113.69-65.88-95.25c0,0,199.91-32.75,234.92,11.29
	s-99.25,98.81-143.06,68.14c-18.82-13.18,621.18-44.8,621.18-44.8s-138.92,11.67-159.25,25.22"/>
</svg>

<?xml version="1.0" encoding="UTF-8" standalone="no"?>
<!DOCTYPE svg PUBLIC "-//W3C//DTD SVG 1.1//EN" "http://www.w3.org/Graphics/SVG/1.1/DTD/svg11.dtd">
<svg width="100%" height="100%" viewBox="0 0 725 161" version="1.1" xmlns="http://www.w3.org/2000/svg" xmlns:xlink="http://www.w3.org/1999/xlink" xml:space="preserve" xmlns:serif="http://www.serif.com/" style="fill-rule:evenodd;clip-rule:evenodd;stroke-linecap:round;stroke-linejoin:round;stroke-miterlimit:10;">
    <g transform="matrix(1,0,0,1,-56.95,-201.99)">
        <g transform="matrix(1,0,0,1,-1,0)">
            <path d="M705.09,259.64L705.09,235.74" style="fill:none;fill-rule:nonzero;stroke:black;stroke-width:5px;"/>
        </g>
        <path d="M689.47,235.74L708.14,235.74" style="fill:none;fill-rule:nonzero;stroke:black;stroke-width:5px;"/>
        <path d="M682.12,235.74L682.12,260.58" style="fill:none;fill-rule:nonzero;stroke:black;stroke-width:5px;"/>
        <g transform="matrix(1,0,0,1,5,0)">
            <path d="M664.43,260.58L665.56,235.74" style="fill:none;fill-rule:nonzero;stroke:black;stroke-width:5px;"/>
        </g>
        <path d="M654.42,235.74L674.78,235.74" style="fill:none;fill-rule:nonzero;stroke:black;stroke-width:5px;"/>
        <g>
            <path d="M544.34,274.38C547.56,274.38 547.56,269.38 544.34,269.38C541.12,269.38 541.11,274.38 544.34,274.38Z" style="fill-rule:nonzero;"/>
        </g>
        <g>
            <path d="M460.76,281.53C463.98,281.53 463.98,276.53 460.76,276.53C457.54,276.53 457.54,281.53 460.76,281.53Z" style="fill-rule:nonzero;"/>
        </g>
        <path d="M258.97,237.24C258.97,237.24 410.69,229.71 406.92,237.24C403.16,244.77 340.66,258.32 340.66,258.32C340.66,258.32 425.37,264.72 424.99,295.59C424.61,326.46 373.79,357.71 332.75,344.15C291.71,330.59 460,281.67 456.23,287.12C452.47,292.57 440.92,304.24 456.29,295.96C471.66,287.68 519.47,248.52 519.47,248.52C519.47,248.52 473.92,292.1 484.83,290.64C495.75,289.18 549.21,250.78 549.21,250.78C549.21,250.78 509.68,288.82 519.47,287.12C529.26,285.42 540.18,279.02 540.18,279.02C540.18,279.02 530.96,292.57 540.37,288.81C549.78,285.05 563.9,278.83 563.9,278.83C563.9,278.83 557.5,288.99 564.84,285.61C572.18,282.22 581.97,277.89 581.97,277.89C581.97,277.89 576.51,289.56 586.49,288.05C596.47,286.54 610.96,277.32 607.38,276.19C603.8,275.06 591.76,288.99 602.86,288.05C613.97,287.11 621.31,277.89 621.31,277.89C621.31,277.89 568.79,349.98 559.95,343.21C551.1,336.43 612.66,292.59 623.95,287.12C635.24,281.65 650.87,272.81 645.41,273.18C639.95,273.55 640.7,277.32 644.85,279.77C649,282.22 647.67,291.72 637.51,290.64C627.35,289.56 708.85,280.52 778.87,281.46" style="fill:none;fill-rule:nonzero;stroke:black;stroke-width:5px;"/>
        <path d="M380.2,204.49L282.31,359.6" style="fill:none;fill-rule:nonzero;stroke:black;stroke-width:5px;"/>
        <path d="M207.02,220.68C207.02,220.68 118.93,355.08 125.33,353.57C131.73,352.06 219.82,239.88 59.45,258.32C59.45,258.32 259.36,225.57 294.37,269.61C329.38,313.65 195.12,368.42 151.31,337.75C132.49,324.57 772.49,292.95 772.49,292.95C772.49,292.95 633.57,304.62 613.24,318.17" style="fill:none;fill-rule:nonzero;stroke:black;stroke-width:5px;"/>
    </g>
</svg>
